static/images/mobile/copyright/wikipedia-wordmark-fa.svg

<?xml version="1.0" encoding="UTF-8"?>
<svg xmlns="http://www.w3.org/2000/svg" width="78" height="26" viewBox="0 0 78 26">
	<title>
		Combined-Shape
	</title>
	<g id="Page-1" fill="none" fill-rule="evenodd" stroke="none" stroke-width="1">
		<path id="Combined-Shape" fill="#000" fill-rule="nonzero" d="M62.8899731,0.191068453 C62.8899581,0.465439169 62.72829,1.16112218 62.4049538,2.27806482 C60.0239614,3.0619489 56.9571287,4.16421769 53.2040871,5.58494645 C54.9481671,7.12329168 57.0841515,9.53363929 59.6121156,12.8160645 C60.5037584,13.9722879 61.2287966,14.7168912 61.7873055,15.0501003 C62.2184229,15.3048607 62.8405863,15.4322372 63.6538933,15.4322372 L64.0360226,15.4322372 L64.0358872,15.4323651 L64.9304346,15.4328994 C66.8019136,15.4328994 67.7376532,15.0948593 67.7376532,14.4187489 C67.7376456,13.9484335 67.311427,13.1694407 66.4589973,12.0818457 L67.223241,10.2300071 C67.3016219,10.0438525 67.3653063,9.95076013 67.4143019,9.95076013 C67.46329,9.95076013 67.5661724,10.0634477 67.7229492,10.2888003 C68.5166159,11.4548062 68.9134116,12.6501598 68.9134116,13.8749364 C68.9134116,16.3637476 67.673916,17.6080893 65.19494,17.6080893 L63.0050762,17.6080893 L63.0049558,17.6055985 L62.8948903,17.6019197 C61.9791906,17.5433339 61.0418271,17.016062 60.0827997,16.0200788 C59.5830765,15.5007678 58.8531319,14.5405041 57.8928607,13.1394158 C57.9908368,16.1180549 56.3104187,17.6074121 52.8516817,17.6074121 L45.7175614,17.6074121 C45.2080405,17.6074121 44.6985197,17.6906993 44.189074,17.8572662 C43.5129862,18.0924239 43.1749235,18.4108688 43.1749235,18.8125708 C43.1749107,18.9595425 44.0788321,19.2118498 45.886574,19.5695152 C47.6943159,19.9271506 48.5982244,20.3215307 48.5982244,20.7526783 C48.5982064,22.2321776 48.1719832,23.3345217 47.3195686,24.0595599 C45.8791994,25.294119 43.3414528,25.9113986 39.7064791,25.9113986 C35.3168938,25.9113986 33.1220636,24.2897511 33.1220636,21.0466066 C33.1220636,20.3215383 33.2788328,19.5082613 33.592379,18.606836 C33.9059175,17.7054107 34.2880469,16.9607321 34.7387445,16.3728003 C34.915109,16.1474402 35.0767771,16.0249625 35.2237563,16.0053598 C35.370728,15.9955772 35.4442101,16.0739882 35.4442176,16.2405175 C35.4442131,16.3874967 35.3854244,16.5736588 35.2678456,16.7990189 C34.6995466,17.8768313 34.4154083,18.9938492 34.4154083,20.1499973 C34.4154046,21.1004107 34.7730437,21.8842947 35.4883294,22.5015743 C36.4093951,23.3050235 37.8399064,23.7067857 39.7799386,23.7067857 C41.2790784,23.7067782 42.6703842,23.6283898 43.9540066,23.471628 C46.2271726,23.1874747 47.3637556,22.702493 47.3637556,22.0165851 C47.3637391,21.7324318 46.8689312,21.5070717 45.8792897,21.3405048 C44.3115216,21.0759467 43.4003137,20.9093798 43.1455909,20.8407966 C42.155972,20.5664409 41.661125,20.1451135 41.661125,19.5768145 C41.6611137,19.1260943 41.901174,18.562664 42.3812945,17.8866138 C42.7830116,17.3183223 43.2043088,16.8577895 43.6452765,16.5050906 C44.5271367,15.7898199 45.781261,15.4321695 47.4077997,15.4321695 L53.1162623,15.4322221 C55.6442264,15.4322221 56.9081332,14.7316479 56.9082084,13.3304767 C56.9082009,12.5858132 56.4672783,11.6745902 55.5854558,10.5967778 C55.0269468,9.91091501 54.2137151,9.0731817 53.1456852,8.08356285 C52.263825,7.26054853 51.8229326,6.80490697 51.8229326,6.71671342 C51.822925,5.47237176 52.0335887,4.56108864 52.4549161,3.98301458 C52.5528997,3.85565317 53.78256,3.35594494 56.1439196,2.48387483 C58.6424607,1.56288441 60.8911703,0.798565447 62.8899731,0.191068453 Z M28.6037616,22.8961652 L29.9852848,24.2776884 L28.6184354,25.6445378 L27.2369122,24.2630146 L28.6037616,22.8961652 Z M74.1975067,10.5938431 C75.3732952,10.5938431 76.2453728,11.4021836 76.8136643,13.0189398 C77.2055837,14.1457402 77.4016187,15.4243961 77.4016187,16.8549827 C77.4016187,19.6572347 76.4364563,22.0577245 74.5062066,24.0566026 C73.8987096,24.6836797 73.5116965,24.9972334 73.345092,24.9972334 C72.2967025,24.9972334 71.0768172,24.8894446 69.6854362,24.6738896 C69.2053232,24.5955012 68.9652667,24.5220116 68.9652667,24.4534283 C68.9652667,24.3750399 69.2200196,24.2623599 69.7295104,24.1153882 C71.2579978,23.6744656 72.6739105,22.8906117 73.9770228,21.7638112 C74.5257116,21.2934958 75.0254123,20.7398782 75.4761625,20.1030335 C76.044454,19.3093668 76.3285998,18.6430992 76.3285998,18.1042307 L76.3285998,17.4869436 L73.8741554,17.5751296 C72.139858,17.6339002 71.2727469,16.9137458 71.2727469,15.4146135 C71.2727394,14.4837653 71.5421887,13.4843639 72.0810874,12.4163341 C72.6983744,11.2013401 73.40384,10.5938431 74.1975067,10.5938431 Z M67.0967299,19.868538 L68.5517729,21.3382548 L67.0967299,22.7932978 L65.6416869,21.323581 L67.0967299,19.868538 Z M63.8632927,19.868538 L65.3330095,21.3382548 L63.8779666,22.7932978 L62.4229236,21.323581 L63.8632927,19.868538 Z M9.88963719,19.868538 L11.3446802,21.3382548 L9.88963719,22.7932978 L8.43459422,21.323581 L9.88963719,19.868538 Z M6.65620001,19.868538 L8.12591682,21.3382548 L6.67087385,22.7932978 L5.21583088,21.323581 L6.65620001,19.868538 Z M26.92831,19.9567315 L28.3098333,21.3382548 L26.92831,22.7051042 L25.5320376,21.323581 L26.92831,19.9567315 Z M30.2645393,19.9567315 L31.6608117,21.3382548 L30.2792884,22.7051042 L28.883016,21.323581 L30.2645393,19.9567315 Z M20.4440611,6.07005609 C20.5028392,6.10926158 20.5763288,6.23173924 20.6645223,6.43748905 C21.3111947,7.96605173 22.1685534,10.2000122 23.2365832,13.1394459 C23.7950696,14.6679333 24.5837923,15.4322522 25.602834,15.4322522 L25.7498057,15.4322522 L26.2406344,15.4328994 L28.1659928,15.4328994 C30.0374718,15.4328994 30.9732113,15.0948593 30.9732113,14.4187489 C30.9732075,13.9484335 30.5469852,13.1694407 29.6945554,12.0818457 L30.4587991,10.2300071 C30.53718,10.0438525 30.600872,9.95076013 30.6498676,9.95076013 C30.6988556,9.95076013 30.8017381,10.0634477 30.9585149,10.2888003 C31.7521815,11.4548062 32.1489998,12.6501598 32.1489998,13.8749364 C32.1489998,16.3637476 30.9095494,17.6080893 28.4305734,17.6080893 L26.2406344,17.6080893 L25.7497004,17.6074121 L25.2940814,17.6074121 C24.5885932,17.6074121 23.9908938,17.382052 23.5010133,16.9313318 C23.1972573,16.6569836 22.8298243,16.1573055 22.3987445,15.432192 C21.9480168,16.2258587 21.4237995,16.7892589 20.8261603,17.1223927 C20.0912869,17.5241173 19.0526574,17.7249834 17.7103396,17.7249834 C15.0746169,17.7249834 13.7567555,16.7794613 13.7567555,14.8884171 C13.7567555,14.2515348 13.9527153,13.5950122 14.3446498,12.918962 C14.4720262,12.6936094 14.5994027,12.5809294 14.7267791,12.5809219 C14.844358,12.5809294 14.9031437,12.678913 14.9031512,12.8748728 C14.9031482,12.982654 14.8884472,13.1418765 14.8590619,13.3525326 C14.8296616,13.5632038 14.8149652,13.7224263 14.8149727,13.8302 C14.8149689,14.9570004 15.7702773,15.5204006 17.6809619,15.5204006 C20.3754552,15.5204082 21.7227395,14.9961984 21.7227395,13.9478164 C21.7227297,13.3795249 20.9437467,11.3366254 19.3858364,7.81904242 L20.2235998,6.36399945 C20.3313735,6.17784485 20.4048556,6.07986875 20.4440611,6.07005609 Z M1.41096877,0 C1.46975443,0 1.52364882,0.117601425 1.57263687,0.352736549 C1.62162492,0.587916824 1.66571417,0.903908571 1.70491213,1.30074189 C1.74410258,1.69758274 1.77839421,2.15566241 1.80779457,2.67496586 C1.8371874,3.19428436 1.86168142,3.73562115 1.88128417,4.29902137 C1.90087939,4.86243665 1.91557581,5.4307131 1.92537342,6.00389588 C1.9351635,6.57710124 1.94006983,7.11353922 1.94006983,7.61327755 L1.94006983,13.0954243 C1.94006607,14.6533347 2.68963218,15.4323275 4.18877944,15.4323275 L4.77664359,15.4323275 L5.25328003,15.4328994 L7.1786384,15.4328994 C9.05011743,15.4328994 9.98585695,15.0948593 9.98585695,14.4187489 C9.98585319,13.9484335 9.5596308,13.1694407 8.70720107,12.0818457 L9.47144478,10.2300071 C9.54982566,10.0438525 9.61351765,9.95076013 9.66251323,9.95076013 C9.71150128,9.95076013 9.81438372,10.0634477 9.97116053,10.2888003 C10.7648272,11.4548062 11.1616454,12.6501598 11.1616454,13.8749364 C11.1616454,16.3637476 9.92219506,17.6080893 7.44321903,17.6080893 L5.25328003,17.6080893 L4.77664359,17.6074121 L3.89478341,17.6074121 C3.28728641,17.6074121 2.7654997,17.5069828 2.32949851,17.3061167 C1.89347475,17.1052507 1.53342385,16.7917121 1.2492781,16.3654859 C0.965124824,15.9392673 0.756914315,15.3905409 0.62463905,14.719382 C0.492363785,14.0482081 0.426218627,13.2373994 0.426226152,12.286986 L0.440922568,8.70084993 C0.440919558,6.99597542 0.293943362,4.55620488 0,1.38153832 L1.16111466,0.146979206 C1.25909076,0.0490106271 1.34237797,0 1.41096877,0 Z M73.8889196,12.6955133 C73.496985,12.6955133 73.1564917,12.8424925 72.8674698,13.1364358 C72.5784102,13.4303867 72.4338916,13.7733257 72.4338916,14.1652602 C72.4338916,15.02748 73.0511787,15.4586652 74.2857303,15.4586652 C74.7462406,15.4586652 75.3341198,15.4047858 76.0494507,15.2969895 C76.0494507,14.6993127 75.8436708,14.1260998 75.4321561,13.5773735 C74.9814284,12.9894792 74.4669936,12.6955133 73.8889196,12.6955133 Z"/>
	</g>
</svg>

<svg xmlns="http://www.w3.org/2000/svg" width="78" height="26"><path fill="#000" fill-rule="nonzero" d="M62.89.191c0 .274-.162.97-.485 2.087-2.381.784-5.448 1.886-9.2 3.307 1.743 1.538 3.88 3.949 6.407 7.231.892 1.156 1.617 1.9 2.175 2.234.431.255 1.054.382 1.867.382h1.276c1.872 0 2.808-.337 2.808-1.013 0-.47-.427-1.25-1.279-2.337l.764-1.852c.079-.186.142-.28.191-.28.05 0 .152.113.309.339.794 1.166 1.19 2.361 1.19 3.586 0 2.489-1.24 3.733-3.718 3.733h-2.19v-.002l-.11-.004c-.916-.059-1.853-.586-2.812-1.582-.5-.52-1.23-1.48-2.19-2.88.098 2.978-1.583 4.467-5.041 4.467h-7.134c-.51 0-1.02.084-1.529.25-.676.235-1.014.554-1.014.956 0 .147.904.399 2.712.757 1.807.357 2.711.752 2.711 1.183 0 1.48-.426 2.582-1.278 3.307-1.44 1.234-3.979 1.851-7.614 1.851-4.39 0-6.584-1.621-6.584-4.864 0-.725.157-1.539.47-2.44.314-.902.696-1.646 1.147-2.234.176-.226.338-.348.485-.368.147-.01.22.069.22.236 0 .146-.059.333-.176.558-.568 1.078-.853 2.195-.853 3.351 0 .95.358 1.734 1.073 2.352.921.803 2.352 1.205 4.292 1.205 1.5 0 2.89-.079 4.174-.235 2.273-.285 3.41-.77 3.41-1.455 0-.285-.495-.51-1.485-.676-1.567-.265-2.479-.432-2.733-.5-.99-.275-1.485-.696-1.485-1.264 0-.45.24-1.014.72-1.69.402-.569.823-1.03 1.264-1.382.882-.715 2.136-1.073 3.763-1.073h5.708c2.528 0 3.792-.7 3.792-2.102 0-.744-.44-1.655-1.323-2.733-.558-.686-1.371-1.524-2.44-2.513-.881-.823-1.322-1.28-1.322-1.367 0-1.245.21-2.156.632-2.734.098-.127 1.328-.627 3.689-1.5A123.994 123.994 0 0 1 62.89.192zM28.604 22.896l1.381 1.382-1.367 1.367-1.381-1.382 1.367-1.367zm45.594-12.302c1.175 0 2.047.808 2.616 2.425.392 1.127.588 2.405.588 3.836 0 2.802-.966 5.203-2.896 7.202-.607.627-.994.94-1.16.94-1.05 0-2.27-.108-3.66-.323-.48-.078-.72-.152-.72-.22 0-.079.254-.192.764-.339 1.528-.44 2.944-1.224 4.247-2.351a9.085 9.085 0 0 0 1.5-1.661c.567-.794.852-1.46.852-1.999v-.617l-2.455.088c-1.734.059-2.601-.661-2.601-2.16 0-.931.27-1.93.808-2.999.617-1.215 1.323-1.822 2.117-1.822zm-7.101 9.275 1.455 1.47-1.455 1.454-1.455-1.47 1.455-1.454zm-3.234 0 1.47 1.47-1.455 1.454-1.455-1.47 1.44-1.454zm-53.973 0 1.455 1.47-1.455 1.454-1.455-1.47L9.89 19.87zm-3.234 0 1.47 1.47-1.455 1.454-1.455-1.47 1.44-1.454zm20.272.088 1.382 1.381-1.382 1.367-1.396-1.381 1.396-1.367zm3.337 0 1.396 1.381-1.382 1.367-1.396-1.381 1.382-1.367zM20.445 6.07c.058.04.131.162.22.367.646 1.53 1.504 3.763 2.572 6.702.558 1.529 1.347 2.293 2.366 2.293H28.166c1.871 0 2.807-.337 2.807-1.013 0-.47-.426-1.25-1.278-2.337l.764-1.852c.078-.186.142-.28.19-.28.05 0 .153.113.31.339.793 1.166 1.19 2.361 1.19 3.586 0 2.489-1.24 3.733-3.718 3.733h-3.137c-.705 0-1.303-.226-1.793-.677-.304-.274-.671-.774-1.102-1.499-.451.794-.975 1.357-1.573 1.69-.735.402-1.773.603-3.116.603-2.635 0-3.953-.946-3.953-2.837 0-.636.196-1.293.588-1.969.127-.225.254-.338.382-.338.117 0 .176.098.176.294 0 .108-.015.267-.044.478-.03.21-.044.37-.044.477 0 1.127.955 1.69 2.866 1.69 2.694 0 4.042-.524 4.042-1.572 0-.568-.78-2.611-2.337-6.129l.838-1.455c.107-.186.18-.284.22-.294zM1.41 0c.059 0 .113.118.162.353s.093.55.132.948c.04.397.073.855.103 1.374.03.52.054 1.06.073 1.624a96.5 96.5 0 0 1 .06 3.314v5.482c0 1.558.749 2.337 2.248 2.337h2.99c1.871 0 2.807-.337 2.807-1.013 0-.47-.426-1.25-1.279-2.337l.764-1.852c.079-.186.143-.28.192-.28.049 0 .151.113.308.339.794 1.166 1.19 2.361 1.19 3.586 0 2.489-1.239 3.733-3.718 3.733H3.895c-.608 0-1.13-.101-1.566-.302a2.586 2.586 0 0 1-1.08-.94c-.284-.427-.492-.975-.624-1.647-.133-.67-.199-1.482-.199-2.432l.015-3.586C.44 6.996.294 4.556 0 1.38L1.161.148C1.26.049 1.342 0 1.411 0zm72.478 12.696c-.392 0-.733.146-1.022.44-.289.294-.433.637-.433 1.03 0 .861.617 1.293 1.852 1.293.46 0 1.048-.054 1.763-.162 0-.598-.205-1.17-.617-1.72-.45-.588-.965-.881-1.543-.881z"/></svg>
